svgs/light/fill-drip.svg

<svg xmlns="http://www.w3.org/2000/svg" viewBox="0 0 576 512"><!-- Font Awesome Pro 6.0.0-alpha2 by @fontawesome - https://fontawesome.com License - https://fontawesome.com/license (Commercial License) --><path d="M525.443 340.365C519.137 330.508 504.865 330.508 498.559 340.365C479.787 369.705 448 423.07 448 448C448 483.375 476.625 512 512 512S576 483.375 576 448C576 423.07 544.213 369.705 525.443 340.365ZM512 480C494.375 480 480 465.625 480 448C480.25 438.25 493.625 410.375 512 379.25C530.5 410.375 543.75 438.25 544 448C544 465.625 529.625 480 512 480ZM502.625 217L295 9.375C288.75 3.125 280.5 0 272.25 0C264.125 0 255.875 3.125 249.75 9.375L156.875 102.25L62.625 8C56.404 1.777 46.223 1.777 40 8C33.779 14.223 33.779 24.402 40 30.625L134.25 124.875L28.125 231C-9.375 268.375 -9.375 329.25 28.125 366.75L145.25 483.875C164 502.625 188.625 512 213.125 512C237.75 512 262.25 502.625 281 483.875L502.625 262.25C515.125 249.875 515.125 229.5 502.625 217ZM258.375 461.25C246.375 473.375 230.25 480 213.125 480C196.125 480 180 473.375 168 461.25L50.75 344C43.875 337.125 39 328.875 35.875 320H399.625L258.375 461.25ZM431.625 288H33C35.25 275 41.25 263 50.75 253.625L156.875 147.5L244.75 235.25C251 241.5 261.125 241.5 267.25 235.25C273.5 229 273.5 218.875 267.25 212.75L179.5 124.875L272.25 32L480 239.625L431.625 288Z"/></svg>

<svg xmlns="http://www.w3.org/2000/svg" viewBox="0 0 576 512"><!--! Font Awesome Pro 6.0.0-alpha3 by @fontawesome - https://fontawesome.com License - https://fontawesome.com/license (Commercial License) --><path d="M525.4 340.4c-6.307-9.857-20.58-9.857-26.89 0C479.8 369.7 448 423.1 448 448C448 483.4 476.6 512 512 512s64-28.6 64-63.97C576 423.1 544.2 369.7 525.4 340.4zM512 480c-17.62 0-32-14.38-32-32c.25-9.75 13.62-37.63 32-68.75c18.5 31.12 31.75 59 32 68.75C544 465.6 529.6 480 512 480zM502.6 217L294.1 9.371C288.7 3.121 280.5 0 272.3 0c-8.125 0-16.4 3.121-22.53 9.371L156.9 102.3L62.63 8C56.4 1.777 46.22 1.777 40 8c-6.221 6.223-6.221 16.4 0 22.62l94.25 94.25L28.13 231c-37.5 37.38-37.5 98.25 0 135.8l117.1 117.1C164 502.6 188.6 512 213.1 512c24.62 0 49.13-9.375 67.88-28.12l221.6-221.6C515.1 249.9 515.1 229.5 502.6 217zM258.4 461.3C246.4 473.4 230.3 480 213.1 480C196.1 480 180 473.4 168 461.3L50.75 344C43.88 337.1 39 328.9 35.88 320h363.8L258.4 461.3zM431.6 288H33c2.25-13 8.25-25 17.75-34.38L156.9 147.5l87.88 87.75c6.25 6.25 16.38 6.25 22.5 0c6.25-6.25 6.25-16.38 0-22.5L179.5 124.9L272.3 32L480 239.6L431.6 288z"/></svg>
